data/pieces/simple/blackPawn.svg

<svg xmlns="http://www.w3.org/2000/svg" width="1000pt" height="1000pt" viewBox="0 0 1000 1000"><path d="M188 910V769c0-65 30-191 151-241v-3c-23-28-36-64-36-102 0-48 21-99 76-138v-2c-6-10-15-33-15-52 0-61 37-126 136-126s136 65 136 126c0 19-9 42-15 52v2c55 39 76 90 76 138 0 38-13 74-36 102v3c121 50 151 176 151 241v141H188" style="stroke-width:2;stroke-linecap:butt;stroke-linejoin:miter;stroke:#fff;stroke-opacity:1;stroke-miterlimit:10;fill-rule:nonzero;fill:#fff;fill-opacity:1"/><path d="M188 910V769c0-65 30-191 151-241v-3c-23-28-36-64-36-102 0-48 21-99 76-138v-2c-6-10-15-33-15-52 0-61 37-126 136-126s136 65 136 126c0 19-9 42-15 52v2c55 39 76 90 76 138 0 38-13 74-36 102v3c121 50 151 176 151 241v141z" style="stroke:none;fill-rule:nonzero;fill:#000;fill-opacity:1"/></svg>

<?xml version="1.0" encoding="UTF-8"?>
<!--
    Image is based on original work of Max Froumentin (mf@w3.org) which
    used to be available at:

    http://people.w3.org/maxf/ChessGML/ChessSophia.svg

    These images are under the W3C Software Notice and License, see
    COPYING.html for details.
-->
<svg xmlns="http://www.w3.org/2000/svg" xmlns:xlink="http://www.w3.org/1999/xlink" width="1000pt" height="1000pt" viewBox="0 0 1000 1000" version="1.1">
<g id="surface0">
<path style="stroke-width:2;stroke-linecap:butt;stroke-linejoin:miter;stroke:white;stroke-opacity:1;stroke-miterlimit:10;fill-rule:nonzero;fill:white;fill-opacity:1;" d="M 188 910 L 188 769 C 188 704 218 578 339 528 L 339 525 C 316 497 303 461 303 423 C 303 375 324 324 379 285 L 379 283 C 373 273 364 250 364 231 C 364 170 401 105 500 105 C 599 105 636 170 636 231 C 636 250 627 273 621 283 L 621 285 C 676 324 697 375 697 423 C 697 461 684 497 661 525 L 661 528 C 782 578 812 704 812 769 L 812 910 L 188 910"/>
<path style="stroke:none;fill-rule:nonzero;fill:black;fill-opacity:1;" d="M 188 910 L 188 769 C 188 704 218 578 339 528 L 339 525 C 316 497 303 461 303 423 C 303 375 324 324 379 285 L 379 283 C 373 273 364 250 364 231 C 364 170 401 105 500 105 C 599 105 636 170 636 231 C 636 250 627 273 621 283 L 621 285 C 676 324 697 375 697 423 C 697 461 684 497 661 525 L 661 528 C 782 578 812 704 812 769 L 812 910 L 188 910"/>
</g>
</svg>
